X:27
T:Ferry the Pipers
M:3/4
L:1/8
R:March
C:Gris Sanderson
Q:300
N:This is a Highland pipe march. On a ferry once I came across 
N:a coach load of pipers who had been participating in a festival 
N:in Brittany. Of course they all had their pipes out on the deck 
N:and were entertaining the channel crossers.
K:Ddor
d3eg2|a3bg2|a3ge2|a4e2|d3eg2|g2e2a2|g3ea2|g2e2c2|
d3eg2|a2g2e2|d3cA2|c4d2|e3ag2|b2a2g2|e3dc2|d4e2||
||a3Ag2|a3Ag2|a3ge2|a2A2e2|a3Ae2|d3Ag2|g3Aa2|g2A2c2|
d3Ag2|a3Ae2|d3AA2|c2A2d2|e3Ag2|b2A2g2|e3dc2|d6||
